icons/kong-logo.svg

<?xml version="1.0" encoding="UTF-8"?>
<svg width="512px" height="167px" viewBox="0 0 512 167" version="1.1" xmlns="http://www.w3.org/2000/svg" xmlns:xlink="http://www.w3.org/1999/xlink" preserveAspectRatio="xMidYMid">
    <g>
        <path d="M469.742601,112.197531 L493.719369,112.197531 L493.719369,75.3251029 L469.742601,75.3251029 L469.742601,112.197531 Z M493.586901,60.8395063 L512,60.8395063 L512,129.316873 C512,140.641975 510.807787,142.617284 507.761011,145.646091 C505.376585,148.148148 501.535002,149.333333 494.911586,149.333333 L468.020514,149.333333 L459.675008,140.115226 L459.675008,136.296296 L493.586901,136.296296 L493.586901,126.946502 L470.404941,126.946502 C463.384119,126.946502 459.807475,125.629629 456.893171,122.73251 C453.051593,118.781893 451.461969,110.222222 451.461969,94.0246912 C451.461969,77.8271603 453.316527,68.8724279 457.290577,64.7901235 C460.337348,61.8930039 464.046464,60.7078191 470.669879,60.7078191 L484.446588,60.8395063 L493.586901,69.1358025 L493.586901,60.8395063 Z M276.338832,42.6666667 L298.063639,42.6666667 L266.801112,82.1728397 L299.388323,126.814815 L276.338832,126.814815 L251.567254,91.7860083 L245.738647,91.7860083 L245.738647,126.814815 L226.133333,126.814815 L226.133333,42.6666667 L245.738647,42.6666667 L245.738647,75.3251029 L251.567254,75.3251029 L276.338832,42.6666667 Z M419.404634,81.6460907 L419.404634,75.5884774 L412.781217,75.5884774 C412.648749,75.5884774 412.648749,75.5884774 412.51628,75.5884774 L407.350016,75.5884774 C407.217547,75.5884774 407.217547,75.5884774 407.085079,75.5884774 L396.885017,75.5884774 L396.885017,81.6460907 L396.885017,126.55144 L378.604387,126.55144 L378.604387,60.8395063 L390.659005,60.8395063 L396.885017,60.8395063 L396.885017,62.0246912 L396.885017,69.1358025 L406.025332,60.8395063 L411.324065,60.8395063 C412.118875,60.7078191 413.046154,60.7078191 413.973432,60.7078191 L421.921532,60.7078191 C427.485201,60.7078191 431.061845,61.8930039 433.578748,64.3950618 C436.36058,67.0288064 437.420326,70.452675 437.420326,80.1975309 L437.420326,126.55144 L419.139697,126.55144 L419.139697,82.4362142 C419.404634,82.1728397 419.404634,81.9094652 419.404634,81.6460907 L419.404634,81.6460907 Z M323.100154,112.065844 L347.076923,112.065844 L347.076923,75.1934157 L323.100154,75.1934157 L323.100154,112.065844 Z M323.894964,126.55144 C317.271548,126.55144 313.694903,125.497942 310.913068,122.469136 C306.674081,118.123457 304.951993,112.197531 304.951993,93.6296294 C304.951993,74.9300412 306.674081,69.1358025 310.913068,64.6584363 C313.694903,61.7613167 317.271548,60.7078191 323.894964,60.7078191 L346.149645,60.7078191 C352.773062,60.7078191 356.349707,61.7613167 359.131542,64.6584363 C363.370528,69.1358025 365.092617,74.9300412 365.092617,93.6296294 C365.092617,112.329218 363.370528,118.123457 359.131542,122.469136 C356.217238,125.497942 352.773062,126.55144 346.149645,126.55144 L323.894964,126.55144 Z" fill="#043558"></path>
        <g>
            <polygon fill="#169FCC" points="59.7333333 142.373926 64.258586 136.533333 97.7454545 136.533333 115.2 158.833778 112.09697 166.4 68.9131315 166.4 69.9474748 158.833778"></polygon>
            <polygon fill="#14B59A" points="69.9733333 66.334426 86.1427593 38.4 104.984817 38.4 189.44 136.498361 182.892051 166.4 146.677882 166.4 148.94962 158.006557"></polygon>
            <polygon fill="#1BC263" points="89.6 33.0924891 97.3423219 18.7749224 120.569289 0 160.36754 31.2014897 155.205993 36.4692737 162.133333 46.0593421 162.133333 56.3247671 142.302122 72.5333333 109.023721 33.0924891"></polygon>
            <polygon fill="#16BDCC" points="28.096749 95.4785186 38.6163849 95.4785186 66.0473344 72.5333333 102.4 114.773333 92.1466842 130.157037 58.590377 130.157037 35.4205462 159.620741 30.0941482 166.4 0 166.4 0 130.287407"></polygon>
        </g>
    </g>
</svg>

<svg xmlns="http://www.w3.org/2000/svg" viewBox="0 0 512 166.4">
  <path fill="#043558" d="M469.743 112.198h23.976V75.325h-23.976zm23.844-51.358H512v68.477c0 11.325-1.192 13.3-4.239 16.33-2.384 2.501-6.226 3.686-12.85 3.686h-26.89l-8.346-9.218v-3.819h33.912v-9.35h-23.182c-7.02 0-10.598-1.316-13.512-4.213-3.841-3.951-5.431-12.51-5.431-28.708s1.855-25.153 5.829-29.235c3.046-2.897 6.755-4.082 13.379-4.082l13.777.132 9.14 8.296zM276.339 42.667h21.725L266.8 82.173l32.587 44.642h-23.05l-24.77-35.029h-5.83v35.029h-19.605V42.667h19.606v32.658h5.828zm143.066 38.98v-6.059h-22.52v50.963h-18.28V60.84h18.28v8.295l9.14-8.295h5.3c.794-.132 1.721-.132 2.648-.132h7.949c5.563 0 9.14 1.185 11.657 3.687 2.782 2.634 3.841 6.058 3.841 15.803v46.353h-18.28V82.436c.265-.263.265-.527.265-.79zM323.1 112.065h23.977V75.193H323.1zm.795 14.485c-6.623 0-10.2-1.053-12.982-4.082-4.239-4.346-5.961-10.271-5.961-28.84 0-18.699 1.722-24.493 5.961-28.97 2.782-2.898 6.359-3.951 12.982-3.951h22.255c6.623 0 10.2 1.053 12.982 3.95 4.239 4.478 5.96 10.272 5.96 28.972 0 18.7-1.721 24.493-5.96 28.84-2.915 3.028-6.359 4.081-12.982 4.081z"/>
  <path fill="#169fcc" d="m97.745 136.533 17.455 22.3-3.103 7.567H68.913l1.034-7.566-10.214-16.46 4.526-5.84z"/>
  <path fill="#14b59a" d="m104.985 38.4 84.455 98.098-6.548 29.902h-36.214l2.272-8.393-78.977-91.673L86.143 38.4z"/>
  <path fill="#1bc263" d="m120.57 0 39.798 31.201-5.162 5.268 6.927 9.59v10.266l-19.83 16.208-33.28-39.44H89.6l7.742-14.318z"/>
  <path fill="#16bdcc" d="m66.047 72.533 36.353 42.24-10.253 15.384H58.59l-23.17 29.464-5.326 6.779H0v-36.113L28.097 95.48h10.52z"/>
</svg>
